build/finance/UAHOutline.svg

<svg xmlns="http://www.w3.org/2000/svg" fill="none" viewBox="0 0 24 24" focusable="false"><path d="M0 0H24V24H0z"/><path fill="#74767B" fill-rule="evenodd" d="M19.7 12C19.7 16.2526 16.2526 19.7 12 19.7C7.74741 19.7 4.3 16.2526 4.3 12C4.3 7.74741 7.74741 4.3 12 4.3C16.2526 4.3 19.7 7.74741 19.7 12ZM21 12C21 16.9706 16.9706 21 12 21C7.02944 21 3 16.9706 3 12C3 7.02944 7.02944 3 12 3C16.9706 3 21 7.02944 21 12ZM11.4529 8.02478C11.673 7.91479 11.9156 7.85753 12.1616 7.85753L12.345 7.85753C13.1192 7.85753 13.7469 8.48516 13.7469 9.25939C13.7469 9.61335 13.6132 9.95062 13.3783 10.2068L8.35264 10.2068C7.99365 10.2068 7.70264 10.4978 7.70264 10.8568C7.70264 11.2158 7.99365 11.5068 8.35264 11.5068L11.6667 11.5068L10.3563 12.4778L8.35264 12.4778C7.99365 12.4778 7.70264 12.7688 7.70264 13.1278C7.70264 13.4868 7.99365 13.7778 8.35264 13.7778L9.33121 13.7778C9.21916 14.077 9.15967 14.3974 9.15967 14.7252C9.15967 16.2174 10.3693 17.4271 11.8615 17.4271L12.0449 17.4271C12.4927 17.4271 12.9343 17.3228 13.3349 17.1226L14.6873 16.4466C15.0085 16.2861 15.1387 15.8957 14.9782 15.5746C14.8177 15.2535 14.4272 15.1233 14.1061 15.2838L12.7536 15.9598C12.5336 16.0698 12.2909 16.1271 12.0449 16.1271L11.8615 16.1271C11.0873 16.1271 10.4597 15.4994 10.4597 14.7252C10.4597 14.3713 10.5933 14.034 10.8282 13.7778L15.8543 13.7778C16.2133 13.7778 16.5043 13.4868 16.5043 13.1278C16.5043 12.7688 16.2133 12.4778 15.8543 12.4778L12.5399 12.4778L13.8502 11.5068L15.8543 11.5068C16.2133 11.5068 16.5043 11.2158 16.5043 10.8568C16.5043 10.4978 16.2133 10.2068 15.8543 10.2068L14.8753 10.2068C14.9874 9.90761 15.0469 9.58722 15.0469 9.25939C15.0469 7.76719 13.8372 6.55753 12.345 6.55753L12.1616 6.55753C11.7139 6.55753 11.2722 6.66175 10.8717 6.86194L9.5192 7.53795C9.1981 7.69845 9.06789 8.08887 9.22839 8.40998C9.38889 8.73109 9.77931 8.86129 10.1004 8.70079L11.4529 8.02478Z"/></svg>

<svg xmlns="http://www.w3.org/2000/svg" fill="none" viewBox="0 0 24 24" focusable="false"><path fill="#74767B" fill-rule="evenodd" d="M19.7 12c0 4.25-3.45 7.7-7.7 7.7-4.26 0-7.7-3.45-7.7-7.7a7.7 7.7 0 1 1 15.4 0m1.3 0a9 9 0 0 1-9 9c-4.98 0-9-4.03-9-9 0-4.98 4.02-9 9-9 4.97 0 9 4.02 9 9m-9.55-3.98c.22-.11.46-.17.71-.17h.18c.77 0 1.4.63 1.4 1.4 0 .36-.13.7-.37.95H8.35c-.36 0-.65.29-.65.65s.29.65.65.65h3.31l-1.31.97h-2c-.36 0-.65.29-.65.65s.29.65.65.65h.98c-.12.3-.18.62-.18.95 0 1.49 1.21 2.7 2.71 2.7h.18c.45 0 .89-.1 1.29-.3l1.35-.68a.649.649 0 0 0-.58-1.16l-1.35.67c-.22.11-.46.17-.71.17h-.18c-.78 0-1.41-.63-1.41-1.4 0-.35.14-.69.37-.95h5.03c.36 0 .65-.29.65-.65s-.29-.65-.65-.65h-3.32l1.32-.97h2c.36 0 .65-.29.65-.65s-.29-.65-.65-.65h-.98a2.701 2.701 0 0 0-2.53-3.65h-.18c-.45 0-.89.11-1.29.31l-1.36.67c-.32.16-.45.55-.29.87.16.33.55.46.88.3z"/></svg>
